X:1
T:Careless Love
C:W. C. Handy (1921)
M:4/4
L:1/8
F:https://www.youtube.com/watch?v=3tk5-xDqwD0
R:traditional
Q:80
K:F
"F" A6 F2 | "C7" E2 C2 E2 G2 | "F" F8-|F6 C2 | "F" A6 B2 |
"F" c2 c2 "D7" d2 cG-|"G7"G8-|"C7"G6 C2 | "F" A6 B2 | "F7" c6 ^c2 | "Bb" d2 d4 B2 |
"Bbm" F4 c2 B2 | "F" A6 F2 | "C7" E2 C2 E2 G2 | "F" F8- | "F" F6 "C7"y z2 |]